X: 1
T: Pigtown Fling, The
M: 4/4
L: 1/8
R: reel
K: Gmaj
|:G2ge d2ed|B2ge dBAB|G2ge d2ed|BGAG EGG2:|
|:Beed e3g|fgaf gfed|Beed e3g|fgaf g4:|
